X: 3
T: Farewell To Connaught
R: reel
M: 4/4
L: 1/8
K: Dmix
|: D2 (3FED FGAB | c3 d cA ~G2 | Add^c d2 cd | ed^cd edcA | D2 (3FED FGAB | c2 (3Bcd cA ~G2 | ABAG EGAB | cAGE ED ~D2 :||: eggf ~g2 ed | cded cA ~A2 | eaag aged | eaag edcd |eggf ~g2 ed | cded dAAG | ABAG (3EFG AB | cAGE ED ~D2 :|


Tune 981	Setting 981

